lib/brands/icons/visual-studio.svg

<svg xmlns="http://www.w3.org/2000/svg" fill="none" aria-hidden="true" viewBox="0 0 48 48"><g id="visual-studio-Icon"><g id="Group"><path id="Vector" fill="#52218A" d="M11.2013 34.2754C10.7711 34.6429 10.1708 34.7372 9.64875 34.5192L6.9225 33.3754C6.36656 33.1435 6.00327 32.6015 6 31.9992V16.0017C6.00327 15.3993 6.36656 14.8573 6.9225 14.6254L9.64875 13.5004C10.1708 13.2824 10.7711 13.3766 11.2013 13.7442L11.8125 14.2504C11.5598 14.0687 11.2265 14.044 10.9497 14.1863C10.6729 14.3287 10.4992 14.6141 10.5 14.9254V33.0754C10.4992 33.3867 10.6729 33.6721 10.9497 33.8145C11.2265 33.9568 11.5598 33.9321 11.8125 33.7504L11.2013 34.2754Z"/><path id="Vector_2" fill="#6C33AF" d="M6.9225 33.3753C6.36656 33.1434 6.00327 32.6014 6 31.9991V31.8753C6.00378 32.2296 6.22288 32.5458 6.55321 32.6738C6.88353 32.8018 7.25851 32.7158 7.5 32.4566L30.75 6.75033C31.4247 6.079 32.4488 5.90481 33.3075 6.31533L40.725 9.88533C41.5047 10.2602 42.0004 11.0489 42 11.9141V12.0003C41.9995 11.4514 41.683 10.9518 41.1868 10.717C40.6907 10.4821 40.1036 10.554 39.6787 10.9016L11.8125 33.7503L11.2013 34.2753C10.7711 34.6429 10.1708 34.7371 9.64875 34.5191L6.9225 33.3753Z"/><path id="Vector_3" fill="#854CC7" d="M6.9225 14.6253C6.36656 14.8572 6.00327 15.3992 6 16.0016V16.1253C6.00378 15.7711 6.22288 15.4548 6.55321 15.3268C6.88353 15.1988 7.25851 15.2849 7.5 15.5441L30.75 41.2503C31.4247 41.9217 32.4488 42.0959 33.3075 41.6853L40.725 38.1153C41.5047 37.7404 42.0004 36.9517 42 36.0866V36.0003C41.9995 36.5493 41.683 37.0489 41.1868 37.2837C40.6907 37.5186 40.1036 37.4467 39.6787 37.0991L11.8125 14.2503L11.2013 13.7253C10.7673 13.3641 10.1674 13.2772 9.64875 13.5003L6.9225 14.6253Z"/><path id="Vector_4" fill="#B179F1" d="M33.3075 41.6853C32.4488 42.0959 31.4247 41.9217 30.75 41.2503C31.1279 41.6255 31.6942 41.7369 32.186 41.5328C32.6778 41.3287 32.9988 40.8491 33 40.3166V7.69158C33.0018 7.15774 32.6819 6.67536 32.1894 6.46933C31.6969 6.26331 31.1288 6.37421 30.75 6.75033C31.4247 6.079 32.4488 5.90481 33.3075 6.31533L40.725 9.88158C41.5047 10.2565 42.0004 11.0452 42 11.9103V36.0903C42.0004 36.9555 41.5047 37.7442 40.725 38.1191L33.3075 41.6853Z"/><path id="Vector_5" fill="url(#paint0_linear_94_19106)" fill-opacity="0.25" d="M31.8337 41.8504C32.3295 41.9635 32.849 41.9053 33.3075 41.6854L40.725 38.1191C41.5047 37.7442 42.0004 36.9555 42 36.0904V11.9104C42.0004 11.0453 41.5047 10.2565 40.725 9.88164L33.3075 6.31539C32.7827 6.0631 32.1805 6.02412 31.6275 6.20664C31.2968 6.31743 30.9964 6.50358 30.75 6.75039L18.795 19.9729L11.8125 14.2504L11.2013 13.7254C10.8281 13.4064 10.3225 13.2901 9.8475 13.4141C9.77897 13.4293 9.71232 13.4519 9.64875 13.4816L6.9225 14.6254C6.40225 14.8402 6.04605 15.3282 6 15.8891C6 15.9266 6 15.9641 6 16.0016V31.9991C6 32.0366 6 32.0741 6 32.1116C6.04605 32.6726 6.40225 33.1606 6.9225 33.3754L9.64875 34.5004C9.71232 34.5301 9.77897 34.5527 9.8475 34.5679C10.3225 34.6919 10.8281 34.5757 11.2013 34.2566L11.8125 33.7504L18.795 28.0279L30.75 41.2504C31.048 41.5478 31.4235 41.7557 31.8337 41.8504ZM33 16.3804L23.7038 24.0004L33 31.6204V16.3804ZM10.5 18.8516L15.1537 24.0004L10.5 29.1491V18.8516Z"/></g></g><defs><linearGradient id="paint0_linear_94_19106" x1="24" x2="24" y1="6.09414" y2="41.9066" gradientUnits="userSpaceOnUse"><stop stop-color="white"/><stop offset="1" stop-color="white" stop-opacity="0"/></linearGradient></defs></svg>

<svg xmlns="http://www.w3.org/2000/svg" fill="none" aria-hidden="true" viewBox="0 0 48 48"><path fill="#52218A" d="M11.201 34.275a1.5 1.5 0 0 1-1.552.244l-2.726-1.144A1.5 1.5 0 0 1 6 32V16.002a1.5 1.5 0 0 1 .923-1.377L9.649 13.5a1.5 1.5 0 0 1 1.552.244l.611.506a.829.829 0 0 0-1.312.675v18.15a.829.829 0 0 0 1.313.675l-.612.525Z"/><path fill="#6C33AF" d="M6.923 33.375A1.5 1.5 0 0 1 6 32v-.124a.866.866 0 0 0 1.5.582L30.75 6.75a2.25 2.25 0 0 1 2.557-.435l7.418 3.57A2.25 2.25 0 0 1 42 11.915V12a1.421 1.421 0 0 0-2.321-1.098L11.812 33.75l-.61.525a1.5 1.5 0 0 1-1.553.244l-2.726-1.144Z"/><path fill="#854CC7" d="M6.923 14.625A1.5 1.5 0 0 0 6 16.002v.123a.866.866 0 0 1 1.5-.58L30.75 41.25a2.25 2.25 0 0 0 2.557.435l7.418-3.57A2.25 2.25 0 0 0 42 36.087V36a1.421 1.421 0 0 1-2.321 1.1L11.812 14.25l-.61-.525a1.5 1.5 0 0 0-1.553-.225l-2.726 1.125Z"/><path fill="#B179F1" d="M33.307 41.685a2.25 2.25 0 0 1-2.557-.435 1.32 1.32 0 0 0 2.25-.933V7.692a1.32 1.32 0 0 0-2.25-.942 2.25 2.25 0 0 1 2.557-.435l7.418 3.567A2.25 2.25 0 0 1 42 11.91v24.18a2.25 2.25 0 0 1-1.275 2.03l-7.418 3.565Z"/><path fill="url(#a)" fill-opacity=".25" d="M31.834 41.85a2.25 2.25 0 0 0 1.473-.165l7.418-3.566A2.25 2.25 0 0 0 42 36.09V11.91a2.25 2.25 0 0 0-1.275-2.028l-7.418-3.567a2.25 2.25 0 0 0-1.68-.108 2.25 2.25 0 0 0-.877.543L18.795 19.973l-6.983-5.723-.61-.525a1.5 1.5 0 0 0-1.553-.243l-2.726 1.143A1.5 1.5 0 0 0 6 15.89v16.223a1.5 1.5 0 0 0 .923 1.263L9.649 34.5a1.5 1.5 0 0 0 1.553-.244l.61-.506 6.983-5.722L30.75 41.25c.298.298.674.506 1.084.6ZM33 16.38 23.704 24 33 31.62V16.38Zm-22.5 2.472L15.154 24 10.5 29.15V18.851Z"/><defs><linearGradient id="a" x1="24" x2="24" y1="6.094" y2="41.907" gradientUnits="userSpaceOnUse"><stop stop-color="#fff"/><stop offset="1" stop-color="#fff" stop-opacity="0"/></linearGradient></defs></svg>
